packages/kaspersky-hexa-ui-icons/src/iconsSVGs/16/Lock2.svg

<svg width="16" height="16" viewBox="0 0 16 16" fill="none" xmlns="http://www.w3.org/2000/svg">
<path fill-rule="evenodd" clip-rule="evenodd" d="M4.95139 4.04977C4.95139 2.36543 6.31682 1 8.00116 1C9.68551 1 11.0509 2.36543 11.0509 4.04977V5.37212H11.525C12.9609 5.37212 14.125 6.53618 14.125 7.97212V12.4C14.125 13.8359 12.9609 15 11.525 15H4.475C3.03906 15 1.875 13.8359 1.875 12.4V7.97212C1.875 6.53618 3.03906 5.37212 4.475 5.37212H4.95139V4.04977ZM9.75094 4.04977V5.36913H6.25139V4.04977C6.25139 3.0834 7.03479 2.3 8.00116 2.3C8.96754 2.3 9.75094 3.0834 9.75094 4.04977ZM4.475 6.67212H11.525C12.243 6.67212 12.825 7.25415 12.825 7.97212V12.4C12.825 13.118 12.243 13.7 11.525 13.7H4.475C3.75703 13.7 3.175 13.118 3.175 12.4V7.97212C3.175 7.25415 3.75703 6.67212 4.475 6.67212Z" fill="black"/>
</svg>

<svg xmlns="http://www.w3.org/2000/svg" width="16" height="16" fill="none" viewBox="0 0 16 16"><path fill="#000" fill-rule="evenodd" d="M4.9514 4.0498C4.9514 2.3654 6.3168 1 8.0012 1s3.0497 1.3654 3.0497 3.0498V5.372h.4741c1.4359 0 2.6 1.164 2.6 2.6V12.4c0 1.4359-1.1641 2.6-2.6 2.6h-7.05c-1.436 0-2.6-1.1641-2.6-2.6V7.9721c0-1.436 1.164-2.6 2.6-2.6h.4764zm4.7995 0V5.369H6.2514V4.0498c0-.9664.7834-1.7498 1.7498-1.7498s1.7497.7834 1.7497 1.7498M4.475 6.672h7.05c.718 0 1.3.582 1.3 1.3V12.4c0 .718-.582 1.3-1.3 1.3h-7.05c-.718 0-1.3-.582-1.3-1.3V7.9721c0-.718.582-1.3 1.3-1.3"/></svg>
